numeric-3.svg

<svg fill="currentColor" viewBox="0 0 24 24"><path d="M15 15v-1.5a1.5 1.5 0 0 0-1.5-1.5 1.5 1.5 0 0 0 1.5-1.5V9a2 2 0 0 0-2-2H9v2h4v2h-2v2h2v2H9v2h4a2 2 0 0 0 2-2"/></svg>

<svg  viewBox="0 0 24 24" fill="currentColor"><path  d="M15,15V13.5A1.5,1.5 0 0,0 13.5,12A1.5,1.5 0 0,0 15,10.5V9C15,7.89 14.1,7 13,7H9V9H13V11H11V13H13V15H9V17H13A2,2 0 0,0 15,15"/></svg>
